X:1
T:Title
T:Wassermusik Hornpipe simplefied 
T:Georg Friedrich Haendel
T:Transcription Ja'hé or make it ginger
C:Composer
%%score 1 2 3 4
L:1/8
M:3/2
K:F
V:1 treble nm="Oboe" snm="Ob."
V:2 treble nm="Violin" snm="Vln."
V:3 treble nm="Violin" snm="Vln."
V:4 bass nm="Violoncello" snm="Vc."
V:1
 a4 g2 fe f2 d2 | c2 BA B2 AG AB c2 | f4 e2 dc d2 f2 | b4 a2 gf g2 c2 | a4 g2 fe f2 d2 | %5
 c2 BA B2 AG AB c2 | F2 d4 ef =B2 G2 | c2 E2 D2 =B2 c4 :| g4 e2 dc f2 g2 | a2 A4 d2 ^c2 A2 | %10
 ba g2 ag f2 gf e2 | f2 d2 A2 G2 F2 E2 | c4 ^FG A2 D2 d2 | Bc d2 G2 g2 e2 c2 | g4 B4 A2 GF | %15
 G2 f2 c2 e2 f4 :| %16
V:2
 c4 e2 c2 A2 B2 | F4 F2 E2 F2 G2 | A4 c4 F2 c2 | d2 e2 f4 e4 | c4 e2 c2 A2 B2 | F4 F2 E2 F2 G2 | %6
 D2 A4 A2 G2 D2 | G6 F2 E4 :| e4 G2 E2 c2 e2 | f4 F2 D2 E2 F2 | GF E2 F2 d2 ed ^c2 | %11
 d2 A2 F2 E2 D4 | E2 A4 ^F4 A2 | D6 B2 G2 E2 | C2 E2 F2 G2 C2 F2 | D2 B2 c2 B2 A4 :| %16
V:3
 f4 g4 d2 e2 | f4 d2 e2 c2 c2 | d4 c2 f2 d2 c2 | B2 c2 c2 d2 e2 g2 | f4 g4 z4 | f4 d2 c2 c2 c2 | %6
 A2 f4 f2 d2 =B2 | G6 G2 G4 :| c'4 c4 c'2 b2 | a4 d4 A2 f2 | d2 e2 c2 d2 G2 e2 | %11
 d2 d2 d2 ^c2 d2 f2 | a4 A4 A4 | G6 d2 c4 | c4 B2 AG F4 | B4 A2 G2 F4 :| %16
V:4
 F,4 C4 D2 B,2 | A,2 F,2 G,2 C,2 F,2 E,2 | D,4 A,4 B,2 A,2 | G,2 C,2 F,2 D2 C2 E,2 | F,4 C,4 z4 | %5
 A,2 F,2 G,2 C,2 F,2 E,2 | D,2 F,4 D,2 G,2 F,2 | E,2 C,2 G,2 G,,2 C,4 :| C,4 C2 B,2 A,2 G,2 | %9
 F,2 D,4 B,2 A,2 D2 | G,2 C2 F,2 B,2 G,2 A,2 | D,2 F,2 A,2 A,,2 D,4 | A,4 D,4 ^F,4 | %13
 G,4 B,2 G,2 C4 | E,2 C,2 D,2 E,2 F,2 A,,2 | B,,2 D,2 C,2 [C,,C,]2 F,,4 :| %16

